X:1
T:Un Morceau Caractéristique No. 10 in D Minor
T:Un Morceau Caractéristique No. 10 in D Minor
T:from “Les Mois” Opus 74 No. 10 “Gros Temps”
T:Charles-Valentin Alkan (1813 - 1888)
C:Charles-Valentin Alkan(1813 - 1888)
%%score { ( 1 3 ) | 2 }
L:1/8
Q:1/4=500
M:12/8
K:F
V:1 treble nm="Piano"
V:3 treble 
V:2 bass 
V:1
"^Prestissimo"!pp! z12 | z12 | z12 | z12 | z12 | z12 | z12 | z12 | z12 | z12 | z12 | z12 | z12 | %13
 z12 | z12 | z12 |!p! z12 |[K:bass]"_sostenuto" !>!A,6 !>![G,A,]6 | !>![F,A,F]12 | %19
"_poco cresc." !>![E,G,^C]12 | !>![F,^G,D]12 | !>![D,^F,A,]12 |!p! (!>!A,6 !>!G,3- G,2 !>!=F, | %23
 !>!E,6- !>!E,3 !>!F,3 | !>!D,12 | !>!A,,6) z6 | z3 (!>!A,,3 !>!C,3 !>!F,3 | %27
 !>!A,6- !>!A,3 !>!G,3 | !>!F,3 !>!D3 !>!C6- |!>(! !>!C6 !>!_B,6)!>)! | %30
!pp! (!>!F,3 !>!A,3 !>!D3 !>!F,3 |!>(! !>!A,6- !>!A,3 !>!G,3)!>)! | %32
!ppp! (!>!^F,3 !>!A,3 !>!D3 !>!F,3 | !>!^F,6- !>!F,3 !>!E,3) | %34
"_cresc."!<(! z3 !>!D,3 !>!^F,3 !>!A,3 | (!>!C6 !>!_B,6) | z3 !>!^F,3 !>!A,3 !>!C3 | %37
 (!>!_E6 !>!D6) |!<(! z3 (!>![D,^G,D]3 !>![=E,G,=E]3 !>![F,G,F]3)!<)!!<)! | %39
!ff! !>![DFA]/A,/[DFA]/A,/[DFA]/A,/ [DFA]/A,/[DFA]/A,/[DFA]/A,/ [DFA]/A,/[DFA]/A,/[DFA]/A,/ [DFA]/A,/[DFA]/A,/[DFA]/A,/ | %40
"_dim."!>(! [DG]/G,/[DG]/G,/[DG]/G,/ [DG]/G,/[DG]/G,/[DG]/G,/ [DF]/F,/[DF]/F,/[DF]/F,/ [DF]/F,/[DF]/F,/[DF]/F,/ | %41
 [E,=B,]/E/[E,B,]/E/[E,B,]/E/ [E,B,]/E/[E,B,]/E/[E,B,]/E/ [E,B,]/E/[E,B,]/E/[E,B,]/E/ [E,B,]/E/[E,B,]/E/[E,B,]/E/ | %42
 [E,_B,]/E/[E,B,]/E/[E,B,]/E/ [E,B,]/E/[E,B,]/E/[E,B,]/E/ [F,A,]/F/[F,A,]/F/[F,A,]/F/ [F,A,]/F/[F,A,]/F/[F,A,]/F/!>)! | %43
!p! (!>![^F,A,D]12 | !>![=E,G,C]6 !>![^F,A,D]6 | !>![D,G,_B,]12 | !>![C,^F,A,]6 !>![_B,,_E,G,]6 | %47
!>(! !>![A,,D,=F,]12- | [A,,D,F,]6) z6!>)! | %49
[K:treble]!ppp!!8va(! (_b'/^g'/b'/a'/f'/d'/!8va)! b/^g/b/a/f/d/ B/^G/B/A/F/D/ B,/^G,/B,/A,/^F,/D,/ | %50
[K:D] x6 F,/A,/D/F/A/d/ f/a/d'/f'/a'/d''/ | .f'') z z z2 z!fff! [DAfd']6 |] %52
V:2
"_colla "!ped! (B,,/A,,/B,,/A,,/B,,/A,,/ B,,/A,,/B,,/A,,/B,,/A,,/!ped-up!!ped! G,,/A,,/G,,/A,,/G,,/A,,/ G,,/A,,/G,,/A,,/G,,/A,,/!ped-up! | %1
!ped! F,,/A,,/F,,/A,,/F,,/A,,/ F,,/A,,/F,,/A,,/F,,/A,,/!ped-up!!ped! E,,/A,,/E,,/A,,/E,,/A,,/ E,,/A,,/E,,/A,,/E,,/A,,/!ped-up! | %2
!ped! D,,/A,,/D,,/A,,/D,,/A,,/ D,,/A,,/D,,/A,,/D,,/A,,/!ped-up!!ped! A,,,/A,,/A,,,/A,,/A,,,/A,,/ A,,,/A,,/A,,,/A,,/A,,,/A,,/ | %3
 A,,,/A,,/A,,,/A,,/A,,,/A,,/ A,,,/A,,/A,,,/A,,/A,,,/A,,/ A,,,/A,,/A,,,/A,,/A,,,/A,,/ A,,,/A,,/A,,,/A,,/A,,,/A,,/)!ped-up! | %4
!ped! (B,,/A,,/B,,/A,,/B,,/A,,/ B,,/A,,/B,,/A,,/B,,/A,,/!ped-up!!ped! G,,/A,,/G,,/A,,/G,,/A,,/ G,,/A,,/G,,/A,,/G,,/A,,/!ped-up! | %5
!ped! F,,/A,,/F,,/A,,/F,,/A,,/ F,,/A,,/F,,/A,,/F,,/A,,/!ped-up!!ped! E,,/A,,/E,,/A,,/E,,/A,,/ E,,/A,,/E,,/A,,/E,,/A,,/!ped-up! | %6
!ped! D,,/A,,/D,,/A,,/D,,/A,,/ D,,/A,,/D,,/A,,/D,,/A,,/!ped-up!!ped! A,,,/A,,/A,,,/A,,/A,,,/A,,/ A,,,/A,,/A,,,/A,,/A,,,/A,,/ | %7
 A,,,/A,,/A,,,/A,,/A,,,/A,,/ A,,,/A,,/A,,,/A,,/A,,,/A,,/ A,,,/A,,/A,,,/A,,/A,,,/A,,/ A,,,/A,,/A,,,/A,,/A,,,/A,,/)!ped-up! | %8
!ped! (F,,/E,,/F,,/E,,/F,,/E,,/ F,,/E,,/F,,/E,,/F,,/E,,/!ped-up!!ped! D,,/E,,/D,,/E,,/D,,/E,,/ D,,/E,,/D,,/E,,/D,,/E,,/!ped-up! | %9
!ped! C,,/E,,/C,,/E,,/C,,/E,,/ C,,/E,,/C,,/E,,/C,,/E,,/!ped-up!!ped! =B,,,/E,,/B,,,/E,,/B,,,/E,,/ B,,,/E,,/B,,,/E,,/B,,,/E,,/!ped-up! | %10
!ped! A,,,/E,,/A,,,/E,,/A,,,/E,,/ A,,,/E,,/A,,,/E,,/A,,,/E,,/!ped-up!!ped! E,,,/E,,/E,,,/E,,/E,,,/E,,/ E,,,/E,,/E,,,/E,,/E,,,/E,,/ | %11
 E,,,/E,,/E,,,/E,,/E,,,/E,,/ E,,,/E,,/E,,,/E,,/E,,,/E,,/ E,,,/E,,/E,,,/E,,/E,,,/E,,/ E,,,/E,,/E,,,/E,,/E,,,/E,,/)!ped-up! | %12
!ped! (F,,/E,,/F,,/E,,/F,,/E,,/ F,,/E,,/F,,/E,,/F,,/E,,/!ped-up!!ped! D,,/^F,,/D,,/F,,/D,,/F,,/ D,,/F,,/D,,/F,,/D,,/F,,/!ped-up! | %13
!ped! C,,/G,,/C,,/G,,/C,,/G,,/ C,,/G,,/C,,/G,,/C,,/G,,/!ped-up!!ped! =B,,,/^G,,/B,,,/G,,/B,,,/G,,/ B,,,/G,,/B,,,/G,,/B,,,/G,,/!ped-up! | %14
!ped! A,,,/A,,/A,,,/A,,/A,,,/A,,/"^poco cresc."!<(! A,,,/A,,/^G,,,/A,,/A,,,/A,,/ _B,,,/A,,/A,,,/A,,/B,,,/A,,/ =B,,,/A,,/^A,,,/=A,,/B,,,/A,,/ | %15
 C,,/A,,/=B,,,/A,,/C,,/A,,/ ^C,,/A,,/^B,,,/A,,/C,,/A,,/ D,,/A,,/_E,,/A,,/=E,,/A,,/ =F,,/A,,/^F,,/A,,/G,,/!<)!!mp!A,,/)!ped-up! | %16
"_simile"!ped! B,,/A,,/B,,/A,,/B,,/A,,/ B,,/A,,/B,,/A,,/B,,/A,,/!ped-up!!ped! G,,/A,,/G,,/A,,/G,,/A,,/ G,,/A,,/G,,/A,,/G,,/A,,/!ped-up! | %17
!ped! F,,/A,,/F,,/A,,/F,,/A,,/ F,,/A,,/F,,/A,,/F,,/A,,/!ped-up!!ped! E,,/A,,/E,,/A,,/E,,/A,,/ E,,/A,,/E,,/A,,/E,,/A,,/!ped-up! | %18
!ped! D,,/A,,/D,,/A,,/D,,/A,,/ D,,/A,,/D,,/A,,/D,,/A,,/ D,,/A,,/D,,/A,,/D,,/A,,/ D,,/A,,/D,,/A,,/D,,/A,,/!ped-up! | %19
!ped! D,,/B,,/D,,/B,,/D,,/B,,/ D,,/B,,/D,,/B,,/D,,/B,,/ D,,/B,,/D,,/B,,/D,,/B,,/ D,,/B,,/D,,/B,,/D,,/B,,/!ped-up! | %20
!ped! D,,/=B,,/D,,/B,,/D,,/B,,/ D,,/B,,/D,,/B,,/D,,/B,,/ D,,/B,,/D,,/B,,/D,,/B,,/ D,,/B,,/D,,/B,,/D,,/B,,/!ped-up! | %21
!ped! D,,/C,/D,,/C,/D,,/C,/ D,,/C,/D,,/C,/D,,/C,/ D,,/C,/D,,/C,/D,,/C,/ D,,/C,/D,,/C,/D,,/C,/!ped-up! | %22
!ped! D,,/_B,,/D,,/B,,/D,,/B,,/ D,,/B,,/D,,/B,,/D,,/B,,/ D,,/B,,/D,,/B,,/D,,/B,,/ D,,/B,,/D,,/B,,/D,,/B,,/!ped-up! | %23
!ped! D,,/^G,,/D,,/G,,/D,,/G,,/ D,,/G,,/D,,/G,,/D,,/G,,/ D,,/=G,,/D,,/G,,/D,,/G,,/ D,,/G,,/D,,/G,,/D,,/G,,/!ped-up! | %24
!ped! D,,/F,,/D,,/F,,/D,,/F,,/ D,,/F,,/D,,/F,,/D,,/F,,/ D,,/F,,/D,,/F,,/D,,/F,,/ D,,/F,,/D,,/F,,/D,,/F,,/ | %25
 D,,/F,,/D,,/F,,/D,,/F,,/ D,,/F,,/D,,/F,,/D,,/F,,/ D,,/F,,/D,,/F,,/D,,/F,,/ D,,/F,,/D,,/F,,/D,,/F,,/!ped-up! | %26
!ped! =C,,/F,,/C,,/F,,/C,,/F,,/ C,,/F,,/C,,/F,,/C,,/F,,/ C,,/F,,/C,,/F,,/C,,/F,,/ C,,/F,,/C,,/F,,/C,,/F,,/!ped-up! | %27
!ped! C,,/=B,,/C,,/B,,/C,,/B,,/ C,,/B,,/C,,/B,,/C,,/B,,/!ped-up!!ped! C,,/_B,,/C,,/B,,/C,,/B,,/ C,,/B,,/C,,/B,,/C,,/B,,/!ped-up! | %28
!ped! C,,/A,,/C,,/A,,/C,,/A,,/ C,,/A,,/C,,/A,,/C,,/A,,/ C,,/A,,/C,,/A,,/C,,/A,,/ C,,/A,,/C,,/A,,/C,,/A,,/!ped-up! | %29
!ped! C,,/E,,/C,,/E,,/C,,/E,,/ C,,/E,,/C,,/E,,/C,,/E,,/ C,,/E,,/C,,/E,,/C,,/E,,/ C,,/E,,/C,,/E,,/C,,/E,,/!ped-up! | %30
!ped! C,,/F,,/C,,/F,,/C,,/F,,/ C,,/F,,/C,,/F,,/C,,/F,,/ C,,/F,,/C,,/F,,/C,,/F,,/ C,,/F,,/C,,/F,,/C,,/F,,/!ped-up! | %31
!ped! C,,/B,,,/C,,/B,,,/C,,/B,,,/ C,,/B,,,/C,,/B,,,/C,,/B,,,/!ped-up!!ped! ^C,,/B,,,/C,,/B,,,/C,,/B,,,/ C,,/B,,,/C,,/B,,,/C,,/B,,,/!ped-up! | %32
!ped! A,,,/D,,/A,,,/D,,/A,,,/D,,/ A,,,/D,,/A,,,/D,,/A,,,/D,,/ A,,,/D,,/A,,,/D,,/A,,,/D,,/ A,,,/D,,/A,,,/D,,/A,,,/D,,/!ped-up! | %33
!ped! A,,,/G,,,/A,,,/G,,,/A,,,/G,,,/ A,,,/G,,,/A,,,/G,,,/A,,,/G,,,/!ped-up!!ped! _B,,,/G,,,/B,,,/G,,,/B,,,/G,,,/ B,,,/G,,,/B,,,/G,,,/B,,,/G,,,/!ped-up! | %34
!ped! ^F,,,/D,,/F,,,/D,,/F,,,/D,,/ F,,,/D,,/F,,,/D,,/F,,,/D,,/ F,,,/D,,/F,,,/D,,/F,,,/D,,/ F,,,/D,,/F,,,/D,,/F,,,/D,,/!ped-up! | %35
!ped! G,,,/D,,/G,,,/D,,/G,,,/D,,/ G,,,/D,,/G,,,/D,,/G,,,/D,,/ G,,,/D,,/G,,,/D,,/G,,,/D,,/ G,,,/D,,/G,,,/D,,/G,,,/D,,/!ped-up! | %36
!ped! A,,,/D,,/A,,,/D,,/A,,,/D,,/ A,,,/D,,/A,,,/D,,/A,,,/D,,/ A,,,/D,,/A,,,/D,,/A,,,/D,,/ A,,,/D,,/A,,,/D,,/A,,,/D,,/!ped-up! | %37
!ped! B,,,/D,,/B,,,/D,,/B,,,/D,,/ B,,,/D,,/B,,,/D,,/B,,,/D,,/ B,,,/D,,/B,,,/D,,/B,,,/D,,/ B,,,/D,,/B,,,/D,,/B,,,/D,,/!ped-up! | %38
!ped! =B,,,/[F,,=B,,]/B,,,/[F,,B,,]/B,,,/[F,,B,,]/ B,,,/[F,,B,,]/B,,,/[F,,B,,]/B,,,/[F,,B,,]/ B,,,/[F,,B,,]/B,,,/[F,,B,,]/B,,,/[F,,B,,]/ B,,,/[F,,B,,]/B,,,/[F,,B,,]/B,,,/[F,,B,,]/!ped-up! | %39
!ped! !>![A,,,D,,F,,]/A,,/[A,,,D,,F,,]/A,,/[A,,,D,,F,,]/A,,/ [A,,,D,,F,,]/A,,/[A,,,D,,F,,]/A,,/[A,,,D,,F,,]/A,,/ [A,,,D,,F,,]/A,,/[A,,,D,,F,,]/A,,/[A,,,D,,F,,]/A,,/ [A,,,D,,F,,]/A,,/[A,,,D,,F,,]/A,,/[A,,,D,,F,,]/A,,/!ped-up! | %40
!ped! [A,,,D,,]/B,,/[A,,,D,,]/B,,/[A,,,D,,]/B,,/ [A,,,D,,]/B,,/[A,,,D,,]/B,,/[A,,,D,,]/B,,/!ped-up!!ped! [A,,,D,,]/A,,/[A,,,D,,]/A,,/[A,,,D,,]/A,,/ [A,,,D,,]/A,,/[A,,,D,,]/A,,/[A,,,D,,]/A,,/!ped-up! | %41
!ped! [A,,,D,,]/^G,,/[A,,,D,,]/G,,/[A,,,D,,]/G,,/ [A,,,D,,]/G,,/[A,,,D,,]/G,,/[A,,,D,,]/G,,/ [A,,,D,,]/G,,/[A,,,D,,]/G,,/[A,,,D,,]/G,,/ [A,,,D,,]/G,,/[A,,,D,,]/G,,/[A,,,D,,]/G,,/!ped-up! | %42
!ped! [A,,,D,,]/=G,,/[A,,,D,,]/G,,/[A,,,D,,]/G,,/ [A,,,D,,]/G,,/[A,,,D,,]/G,,/[A,,,D,,]/G,,/!ped-up!!ped! [A,,,^C,,]/A,,/[A,,,C,,]/A,,/[A,,,C,,]/A,,/ [A,,,C,,]/A,,/[A,,,C,,]/A,,/[A,,,C,,]/A,,/!ped-up! | %43
!ped! D,,,/D,,/D,,,/D,,/D,,,/D,,/ D,,,/D,,/D,,,/D,,/D,,,/D,,/ D,,,/D,,/D,,,/D,,/D,,,/D,,/ D,,,/D,,/D,,,/D,,/D,,,/D,,/!ped-up! | %44
!ped! D,,,/D,,/D,,,/D,,/D,,,/D,,/ D,,,/D,,/D,,,/D,,/D,,,/D,,/ D,,,/D,,/D,,,/D,,/D,,,/D,,/ D,,,/D,,/D,,,/D,,/D,,,/D,,/!ped-up! | %45
!ped! D,,,/D,,/D,,,/D,,/D,,,/D,,/ D,,,/D,,/D,,,/D,,/D,,,/D,,/ D,,,/D,,/D,,,/D,,/D,,,/D,,/ D,,,/D,,/D,,,/D,,/D,,,/D,,/!ped-up! | %46
!ped! D,,,/D,,/D,,,/D,,/D,,,/D,,/ D,,,/D,,/D,,,/D,,/D,,,/D,,/ D,,,/D,,/D,,,/D,,/D,,,/D,,/ D,,,/D,,/D,,,/D,,/D,,,/D,,/!ped-up! | %47
!ped! D,,,/D,,/D,,,/D,,/D,,,/D,,/ D,,,/D,,/D,,,/D,,/D,,,/D,,/ !^!^C,,,/D,,/D,,,/D,,/D,,,/D,,/ D,,,/D,,/D,,,/D,,/D,,,/D,,/ | %48
 !^!_E,,,/D,,/D,,,/D,,/D,,,/D,,/ D,,,/D,,/D,,,/D,,/D,,,/D,,/ !^!^C,,,/D,,/D,,,/D,,/D,,,/D,,/ D,,,/D,,/D,,,/D,,/D,,,/D,,/!ped-up! | %49
[K:treble] .[d'f'] z z .[df] z z .[DF] z z[K:bass] .[D,F,] z z | %50
[K:D] A,,/F,,/D,,/A,,,/F,,,/D,,,/ F,,,/A,,,/D,,/ F,,/A,,/D,/ z2 z4 | %51
!ped! F !fermata!z !fermata!z2 !fermata!z2 [D,,,A,,,F,,D,]6!ped-up! |] %52
V:3
 x12 | x12 | x12 | x12 | x12 | x12 | x12 | x12 | x12 | x12 | x12 | x12 | x12 | x12 | x12 | x12 | %16
 x12 |[K:bass] x12 | x12 | x12 | x12 | x12 | !>!D,12- | !>!D,6 !>!^C,6 | x12 | x12 | x12 | %27
 (!>!D,6 !>!E,6 | !>!F,12 | !>!E,12) | (!>!F,12 | !>!E,12) | (!>!^F,12 | !>!^C,12) | x12 | %35
 !>!D,12 | x12 | !>!G,12 | x12 | x12 | x12 | x12 | x12 | x12 | x12 | x12 | x12 | x12 | x12 | %49
[K:treble]!8va(! x3!8va)! x9 |[K:D] x12 | x12 |] %52

